!!! OTL: Berkowitz171
!!! Chapter: 1
!!! Section: I
!!! Page: 39
!!! Mode: 
!!! Encoder: DJB
**kern
*staff1
*I"Piano
=1-
*clefG2
*k[b-e-a-d-]
*f:
*M4/4
4f/
4a-/
4cc\
4cc\
=2
4cc\
4dd-\
4cc\
4r
=3
4b-\
4g/
4en/
4e/
=4
8f/L
8en/
8f/
8a-/J
4g/
4r
=5
4dd-\
4b-\
4a-/
4g/
=6
4cc\
4a-/
4g/
4f/
=7
4b-\
4g/
4en/
4g/
=8
!!linebreak:original
8f/L
8g/
8a-/
8g/J
4f/
4r
==
*-
